X: 05049
T: KEN WILSON'S REEL
C: Bob McQuillen 20 Nov 80
B: Bob's Note Book 5 #49
%R: reel
Z: 2021 John Chambers <jc:trillian.mit.edu>
M: C
L: 1/8
K: F
CD \
| FAGA FAcd | c2A2 A2ag | fgfd c2df | edcd cBAG |\
| F2AG FAcA | B2dc Bdgf | edcd efgb | a2f2 f2 :|
|: ef \
| gagf ecde | f2c2 c2f2 | efgf edcB | ABcd cBAG |\
| Acfc AFAc | Bdgf edcd | cfaf cdef | g2f2 f2 :|
%%begintext align
%% Ken is
%% real great to work for. He's calling
%% some really nice dances in the
%% Mabel Brown Room at Keene State.
%%endtext
